!!!OTL: Die Antiphona: Media vita in morte sumus. / Verdeutscht von Dr. Martin Luther.
!!!ARE: Europa, Mitteleuropa, Deutschland
!!!SCT: A0648
!!!TXL: @@DE, (@@LAT)
!!!YEM: Copyright 1995, estate of Helmut Schaffrath.
**kern	**text
!! Mixed meters:  4/1; 6/1
*M4/1	*
*met(c|)	*
*clefC4	*
*k[]	*
*E:phr	*
!LO:TX:a:t=phryg.	!
!LO:TX:a:t=P:note without tail:problem	!
{1G	Mit-
1G	-ten
1A	wyr
1B	im
=1	=1
1c	le-
1c	-ben
*lig	*
0B	ſind
0A	.
*Xlig	*
=2	=2
*M4/1	*
1B	mit
1c	dem
1d	tod
1A	vmb-
=3	=3
2G	-fan-
2E	.
1F	.
0E}	-gen;}
=4	=4
{1G	Wen_ſu-
1G	-chen
1A	wyr,
1B	der
=5	=5
1c	hülffe
1c	.
*lig	*
0B	thu,
0A	.
*Xlig	*
=6	=6
*M4/1	*
1B	daß
1c	wyr
1d	gnadn
1A	er-
=7	=7
*M6/1	*
2G	-lan-
2E	.
1F	.
0E}	-gen?}
{1r	.
1D	Das
=8	=8
*M4/1	*
1E	bi-
1E	-ſtu
1G	Herr
1F	al-
=9	=9
*M6/1	*
*lig	*
0E	-ley-
0D	.
*Xlig	*
1C	-ne,
2r}	.
{2C	Vns
=10	=10
*M4/1	*
1G	rew-
1G	-et
1A	vn-
1B	-ſer
=11	=11
*M6/1	*
1c	miſ-
1c	-ſe-
*lig	*
0B	-that,
0A	.
*Xlig	*
=12	=12
*M4/1	*
1B	die
1c	dich
1d	Herr
1A	er-
=13	=13
2G	-ʒur-
2E	.
1F	-net
0E}	hat.
=14||	=14||
{0A	Hey-
1G	-li-
1E	-ger
=15	=15
1F	Her-
1G	-re
0E	Gott!
=16	=16
0A	Hey-
1G	-li-
1E	-ger
=17	=17
1F	ſtar-
1G	-cker
1E	Gott!
1r}	.
=18	=18
{1A	Hey-
1G	-li-
1A	-ger
1B	barmher-
=19	=19
0c	.
1.B	-tʒi-
2A	-ger
=20	=20
*M6/1	*
*lig	*
0G	Hey-
0F	.
*Xlig	*
1E	-land,
1E	Du
=21	=21
*M4/1	*
0A	e-
1G	-wi-
1F	-ger
=22	=22
00E/ll}	Gott,
=23	=23
{1A	Las
1G	vns
1A	nicht
1B	ver-
=24	=24
*M6/1	*
*lig	*
0c	-ſin-
0A	.
*Xlig	*
0G	-cken
=25	=25
*M4/1	*
1c	Rnn
1B	des
1c	bit-
1A	-tern
=26	=26
1G	to-
1F	-des
0E	not.
=27||	=27||
1D	Ky-
1A	-ri-
1G	-e-
1F	-lei-
=28	=28
00E/ll}	-ſon!
==	==
!!!GTL: Geistliche Volkslieder
!!!AGN: Romanze, Ballade, Lied, religioeses Lied
!! Joh. Walther 1524 No. 3.
!!!ONB: ESAC (Essen Associative Code) Database: ALTDEU
!!!AMT: irregular
!!!AIN: vox
!!!EED: Helmut Schaffrath
!!!EEV: 1.0
!!!RDF**kern: l = terminal long
!!!AMD: Phrygian
!!!URL-scan: https://rosdok.uni-rostock.de/mcrviewer/recordIdentifier/rosdok_ppn738218359/iview2/phys_0829.iview2?x=-495.6391625615763&y=1416.1605911296792&scale=0.4629418472063854&rotation=0&layout=singlePageLayout
!!!ENC: Anna Maria Matuszewska
!!!EEV: 2024/25/03
*-	*-
